src/assets/like.svg

<svg xmlns="http://www.w3.org/2000/svg" width="18" height="18" fill="none" viewBox="0 0 18 18">
    <path stroke="currentColor" stroke-width="1.5" d="M11.9602 1.31641C10.8258 1.31641 9.7862 1.74677 9.00016 2.44897C8.21412 1.74677 7.17454 1.31641 6.04016 1.31641C3.57578 1.31641 1.5835 3.32237 1.5835 5.79307C1.5835 6.66703 1.72315 7.47736 1.96579 8.22816C2.54642 10.0636 3.72138 11.5053 4.93715 12.5502C6.14863 13.5914 7.44332 14.2756 8.34183 14.5819C8.55917 14.6578 8.79798 14.6831 9.00016 14.6831C9.20235 14.6831 9.44117 14.6578 9.65851 14.5819C10.557 14.2756 11.8517 13.5914 13.0632 12.5502C14.279 11.5053 15.4539 10.0636 16.0346 8.22806C16.2772 7.47728 16.4168 6.66699 16.4168 5.79307C16.4168 3.32237 14.4245 1.31641 11.9602 1.31641Z"/>
</svg>

<svg xmlns="http://www.w3.org/2000/svg" width="18" height="16" fill="none">
    <path stroke="currentColor" stroke-width="1.5"
        d="M11.96 1.32c-1.13 0-2.17.43-2.96 1.13a4.44 4.44 0 0 0-7.42 3.34c0 .88.14 1.69.39 2.44a9.6 9.6 0 0 0 2.97 4.32 11.06 11.06 0 0 0 3.4 2.03c.22.08.46.1.66.1s.44-.02.66-.1c.9-.3 2.2-.99 3.4-2.03a9.6 9.6 0 0 0 2.97-4.32c.25-.75.39-1.56.39-2.44 0-2.47-2-4.47-4.46-4.47Z" />
</svg>
